X:1
T:Silent Night
T:Silent Night
T:A Christmas Song
T:Franz Gruber and Joseph Mohr
C:Franz Gruber and Joseph Mohr
%%score ( 1 2 ) ( 3 4 ) ( 5 6 ) { 7 | 8 }
L:1/8
M:3/4
K:F
V:1 treble transpose=-9 nm="Alto Saxophone" snm="A. Sax."
V:2 treble transpose=-9 
V:3 treble transpose=-9 nm="Alto Saxophone" snm="A. Sax."
V:4 treble transpose=-9 
V:5 treble transpose=-14 nm="Tenor Saxophone" snm="T. Sax."
V:6 treble transpose=-14 
V:7 treble nm="Piano" snm="Pno."
V:8 bass 
V:1
[K:D] z6 |"_Chorale-like\nPlay bottom notes\n"!p! f6- | a3 b a2 | f6 | e'4 e'2 | c'6 | d'4 d'2 | %7
 a6 |: b4 b2 | d'3 c' b2 | a3 b a2 | f6 :| e'4 e'2 | g'3 e' c'2 | d'6 | f'6 | d'2 a2 f2 | a3 g e2 | %18
 d6- | d6 ||!mf!"^optional 8va"!8va(! a3 b a2 | f6 | a3 b a2 | f6 | e'4 e'2 | c'6 | d'4 d'2 | a6 |: %28
 b4 b2 | d'3 c' b2 | a3 b a2 | f6 :| e'4 e'2 | g'3 e' c'2 | d'6 | f'6 | d'2 a2 f2 | a3 g e2 | d6- | %39
 d6 |"^solo"!mf!"_rit" d'2 a2 f2 | a3 g e2 | d6- | !fermata!d6!8va)! |] %44
V:2
[K:D] x6 | x6 | f6 | z6 | e6- | e6 | d6 | c6 |: B6 | d6 | A6 | f6 :| e6- | e6 | (d6 | f6) | d6 | %17
 A6 | d6- | d6 ||!8va(! x6 | x6 | x6 | x6 | x6 | x6 | x6 | x6 |: x6 | x6 | x6 | x6 :| x6 | x6 | %34
 x6 | x6 | x6 | x6 | x6 | x6 | x6 | x6 | x6 | x6!8va)! |] %44
V:3
[K:D] z6 |"_Chorale-like\nPlay bottom notes\n"!p! d6- | a3 b a2 | f6 | e'4 e'2 | c'6 | d'4 d'2 | %7
 a6 |: b4 b2 | d'3 c' b2 | a3 b a2 | f6 :| e'4 e'2 | g'3 e' c'2 | d'6 | f'6 | d'2 a2 f2 | a3 g e2 | %18
 d6 | d6 ||!mf!"^optional 8va"!8va(! a3 b a2 | f6 | a3 b a2 | f6 | e'4 e'2 | c'6 | d'4 d'2 | a6 |: %28
 b4 b2 | d'3 c' b2 | a3 b a2 | f6 :| e'4 e'2 | g'3 e' c'2 | d'6 | f'6 | d'2 a2 f2 | a3 g e2 | d6- | %39
 d6!8va)! |!p!"_rit" d6 | A6 | D6- | !fermata!D6 |] %44
V:4
[K:D] x6 | x6 | d6 | z6 | A6- | A6 | D6 | A6 |: G6 | G6 | d6 | d6 :| G6- | G6 | d6- | d6 | d6 | %17
 G6 | d6- | d6 ||!8va(! x6 | x6 | x6 | x6 | x6 | x6 | x6 | x6 |: x6 | x6 | x6 | x6 :| x6 | x6 | %34
 x6 | x6 | x6 | x6 | x6 | x6!8va)! | x6 | x6 | x6 | x6 |] %44
V:5
[K:G] z6 |"_Chorale-like\nPlay bottom notes\n"!p! G6- | d3 e d2 | B6 | a4 a2 | f6 | g4 g2 | d6 |: %8
 e4 e2 | g3 f e2 | d3 e d2 | B6 :| a4 a2 | c'3 a f2 | g6 | b6 | g2 d2 B2 | d3 c A2 | G6- | G6 || %20
!mf!"^G""^As is or\nAd. Lib\n" d3 e d2 | B6 | d3 e d2 | B6 |"^D7" a4 a2 | f6 |"^G" g4 g2 | d6 |: %28
"^C" e4 e2 | g3 f e2 |"^G" d3 e d2 | B6 :|"^D7" a4 a2 | c'3 a f2 |"^G" g6 | b6 | g2 d2 B2 | %37
"^D7" d3 c A2 |"^G" G6- | G6 |!p!"_rit" G6 | c6 | B6- | !fermata!B6 |] %44
V:6
[K:G] x6 | x6 | G6 | z6 | D6- | D6 | G6 | D6 |: C6 | C6 | G6 | G6 :| D6- | D6 | G6- | G6 | G6 | %17
 D6 | G6- | G6 || x6 | x6 | x6 | x6 | x6 | x6 | x6 | x6 |: x6 | x6 | x6 | x6 :| x6 | x6 | x6 | x6 | %36
 x6 | x6 | x6 | x6 | x6 | x6 | x6 | x6 |] %44
V:7
 c3 d c2 | A6 | c3 d c2 | A6 | g4 g2 | e6 | f4 f2 | c6 |: d4 d2 | f3 e d2 | c3 d c2 | A6 :| g4 g2 | %13
 b3 g e2 | f6 | a6 | f2 c2 A2 | c3 B G2 | F6- | F6 || %20
!mp!"^as is or\nAd. Lib\n""^F" [F,A,CF]2 [F,A,CF]2 [F,A,CF]2 | [F,A,CF]2 [F,A,CF]2 [F,A,CF]2 | %22
 [F,A,CF]2 [F,A,CF]2 [F,A,CF]2 | [F,A,CF]2 [F,A,CF]2 [F,A,CF]2 | %24
"^C7" [C,E,G,B,C]2 [C,E,G,B,C]2 [C,E,G,B,C]2 | [C,E,G,B,C]2 [C,E,G,B,C]2 [C,E,G,B,C]2 | %26
"^F" [F,A,CF]2 [F,A,CF]2 [F,A,CF]2 | [F,A,CF]2 [F,A,CF]2 [F,A,CF]2 |: %28
"^Bb" [B,,D,F,B,]2 [B,,D,F,B,]2 [B,,D,F,B,]2 | [B,,D,F,B,]2 [B,,D,F,B,]2 [B,,D,F,B,]2 | %30
"^F" [F,A,CF]2 [F,A,CF]2 [F,A,CF]2 | [F,A,CF]2 [F,A,CF]2 [F,A,CF]2 :| %32
"^C7" [C,E,G,B,C]2 [C,E,G,B,C]2 [C,E,G,B,C]2 | [C,E,G,B,C]2 [C,E,G,B,C]2 [C,E,G,B,C]2 | %34
"^F" [F,A,CF]2 [F,A,CF]2 [F,A,CF]2 | [F,A,CF]2 [F,A,CF]2 [F,A,CF]2 | %36
 [F,A,CF]2 [F,A,CF]2 [F,A,CF]2 |"^C7" [C,E,G,B,C]2 [C,E,G,B,C]2 [C,E,G,B,C]2 | %38
"^F" [F,A,CF]2 [F,A,CF]2 [F,A,CF]2 | [F,A,CF]2 [F,A,CF]2 [F,A,CF]2 | %40
!p!"_rit" [F,A,CF]2 [F,A,CF]2 [F,A,CF]2 |"^C7" [C,E,G,B,C]2 [C,E,G,B,C]2 [C,E,G,B,C]2 | %42
"^F" [F,A,CF]2 [F,A,CF]2 [F,A,CF]2 |"_rit" [F,A,CF]2 [F,A,CF]2 !fermata![F,A,CF]2 |] %44
V:8
 z6 | F,2 [A,C]2 [A,C]2 | F,2 [A,C]2 [A,C]2 | F,2 [A,C]2 [A,C]2 | C,2 [E,G,B,]2 [E,G,B,]2 | %5
 C,2 [E,G,B,]2 [E,G,B,]2 | F,2 [A,C]2 [A,C]2 | C,2 [E,G,]2 [E,G,]2 |: B,,2 [D,F,]2 [D,F,]2 | %9
 B,,2 [D,F,]2 [D,F,]2 | F,2 [A,C]2 [A,C]2 | F,2 [A,C]2 [A,C]2 :| C,2 [E,G,B,]2 [E,G,B,]2 | %13
 C,2 [E,G,B,]2 [E,G,B,]2 | F,2 [A,C]2 [A,C]2 | F,2 [A,C]2 [A,C]2 | F,2 [A,C]2 [A,C]2 | %17
 C,2 [E,G,B,]2 [E,G,B,]2 | F,2 [A,C]2 [A,C]2 | F,,2 [A,C]2 [A,C]2 || [F,,A,,C,]6 | [F,,A,,C,]6 | %22
 [F,,A,,C,]6 | [F,,A,,C,]6 | [C,,E,,G,,]6 | [C,,E,,G,,]6 | [F,,A,,C,]6 | [F,,A,,C,]6 |: %28
 [B,,,D,,F,,]6 | [B,,,D,,F,,]6 | [F,,A,,C,]6 | [F,,A,,C,]6 :| [C,,E,,G,,]6 | [C,,E,,G,,]6 | %34
 [F,,A,,C,]6 | [F,,A,,C,]6 | [F,,A,,C,]6 | [C,,E,,G,,]6 | [F,,A,,C,]6 | [F,,A,,C,]6 | [F,,A,,C,]6 | %41
 [C,,E,,G,,]6 | [F,,A,,C,]6 | !fermata![F,,A,,C,]6 |] %44

